assets/icons/utility/bold.svg

<?xml version="1.0"?><svg xmlns="http://www.w3.org/2000/svg" width="52" height="52" viewBox="0 0 52 52"><path fill="#fff" d="m41 19c0-6-4.8-11-10.5-11h-16.5c-1.1 0-2 0.9-2 2v33c0 1.1 0.9 2 2 2h16.5c5.7 0 10.5-5 10.5-11 0-2.9-1.1-5.5-2.9-7.5 1.8-2 2.9-4.6 2.9-7.5z m-10.5 19h-11.5v-8h11.5c1.9 0 3.6 1.9 3.6 4s-1.7 4-3.6 4z m0-15h-11.5v-8h11.5c1.9 0 3.6 1.9 3.6 4s-1.7 4-3.6 4z"></path></svg>

<svg xmlns="http://www.w3.org/2000/svg" x="0px" y="0px"
	 width="52px" height="52px" viewBox="0 0 52 52" enable-background="new 0 0 52 52" xml:space="preserve">
<path fill="#FFFFFF" d="M41,19c0-6-4.8-11-10.5-11H14c-1.1,0-2,0.9-2,2v33c0,1.1,0.9,2,2,2h16.5C36.2,45,41,40,41,34
	c0-2.9-1.1-5.5-2.9-7.5C39.9,24.5,41,21.9,41,19z M30.5,38H19v-8h11.5c1.9,0,3.6,1.9,3.6,4S32.4,38,30.5,38z M30.5,23H19v-8h11.5
	c1.9,0,3.6,1.9,3.6,4S32.4,23,30.5,23z"/>
</svg>
